images/grafik_mail_all.svg

<svg width="136" height="136" viewBox="0 0 136 136" fill="none" xmlns="http://www.w3.org/2000/svg">
<path d="M37.7385 121.31C35.091 120.738 3.28103 115.581 5.62478 77.5502C7.96853 39.5189 10.906 28.0814 23.2735 23.8964C35.641 19.7114 65.6998 -0.0873137 89.2898 18.7389C95.4148 23.6264 101.654 28.3552 107.615 33.4702C115.805 40.5002 124.227 48.6164 128.25 59.2502C130.146 64.2702 130.857 69.6602 130.329 75.0002C129.712 81.2765 128.845 87.3814 127.265 93.5002C126.727 95.5835 126.189 97.6669 125.651 99.7502C125.329 101 125.004 102.258 124.495 103.435C121.224 111.023 117.097 116.001 110.184 120.041C104.184 123.541 96.7485 123.455 90.121 123.069C63.7673 121.533 50.3273 124.033 37.7385 121.31Z" fill="#F9F9F9"/>
<path d="M31.3064 48.0993L31.2334 94.5654L104.688 94.6808L104.761 48.2146L31.3064 48.0993Z" fill="#F7E080"/>
<path d="M36.2068 89.6724C34.4656 88.0474 34.8193 85.0312 34.9168 82.8949C35.0418 80.0949 35.0806 77.2924 35.1093 74.4899C35.1577 69.9066 35.1468 65.3232 35.0768 60.7399C35.0468 58.7024 35.0631 56.6537 34.9031 54.6212C34.8593 54.0624 33.7306 48.3436 33.7256 48.3461C35.1181 47.4336 39.1806 48.1174 41.0143 48.1199L48.7156 48.1324L69.0568 48.1661L103.102 48.2199H104.764C104.764 48.2199 104.756 53.4424 104.756 53.7336L104.722 74.1249L104.707 84.0237C104.707 86.6187 104.277 89.3987 104.378 91.9199C97.5031 93.0124 90.1406 92.2274 83.2393 91.8524C75.9006 91.4537 68.5531 91.1762 61.2031 91.1099C54.0468 91.0449 46.5231 92.0024 39.4293 90.9399C38.4193 90.7899 37.4006 90.5337 36.5543 89.9587C36.4311 89.8727 36.3149 89.777 36.2068 89.6724Z" fill="#FFEEA7"/>
<path d="M31.3101 48.1011L104.765 48.2198L69.4001 78.2598C68.9388 78.6515 68.3571 78.8731 67.7521 78.8874C67.1471 78.9017 66.5556 78.708 66.0763 78.3386L34.3463 53.8673L31.3101 48.1011Z" fill="#F7E080"/>
<path d="M31.3101 48.1011L104.765 48.2198L68.2301 76.9273L31.3101 48.1011Z" fill="#FFF8C1"/>
<path d="M104.517 48.1596L100.879 51.0183L92.1453 57.8821L81.629 66.1446L72.4965 73.3246L69.4828 75.6933C69.0478 76.0346 68.4003 76.3833 68.0503 76.8183C68.0306 76.8369 68.0093 76.8537 67.9865 76.8683L68.5115 76.8058L64.834 73.9308L55.9965 67.0408L45.3715 58.7408L36.1378 51.5321L33.094 49.1571L32.1465 48.4171C32.004 48.3058 31.8203 48.0958 31.6465 48.0296C31.6239 48.0158 31.6029 47.9995 31.584 47.9808L31.1903 48.2846L38.5203 48.2971L56.054 48.3246L77.3178 48.3596L95.6315 48.3883C98.5903 48.3883 101.564 48.4883 104.522 48.4033C104.563 48.4033 104.604 48.4033 104.647 48.4033C104.889 48.4033 105.283 48.0383 104.875 48.0371L97.5453 48.0258L80.0103 47.9996L58.7465 47.9621L40.4315 47.9321C37.474 47.9321 34.5003 47.8333 31.5428 47.9183H31.4178C31.3353 47.9183 30.8328 48.0733 31.024 48.2221L34.7015 51.0971L43.534 57.9871L54.159 66.2858L63.3965 73.4996L66.4403 75.8746C66.9128 76.2433 67.3765 76.6846 67.884 76.9996C67.9061 77.0147 67.9274 77.031 67.9478 77.0483C68.104 77.1733 68.3303 77.0971 68.4715 76.9858L72.109 74.1246L80.8428 67.2608L91.359 58.9996L100.497 51.8221L103.51 49.4533C103.948 49.1096 104.588 48.7621 104.943 48.3283C104.962 48.3093 104.983 48.2925 105.005 48.2783C105.28 48.0621 104.682 48.0296 104.517 48.1596Z" fill="#6A79A6"/>
<path d="M31.0086 48.1888L31.0011 52.8138L30.9823 63.9201C30.9756 68.3776 30.9685 72.8359 30.961 77.2951L30.9423 88.92C30.9423 90.1975 30.9402 91.4746 30.936 92.7513C30.936 93.1475 30.936 93.5425 30.936 93.9375C30.936 94.105 30.8723 94.415 30.936 94.5725C30.9398 94.5995 30.9398 94.6268 30.936 94.6538C30.936 94.7188 31.0798 94.7163 31.1135 94.7163L38.4435 94.7288L55.9748 94.7463L77.2373 94.7813L95.5523 94.81C98.5073 94.81 101.49 94.935 104.442 94.825H104.567C104.692 94.825 104.994 94.7613 104.994 94.6L105.001 90.01L105.02 78.9213C105.026 74.4671 105.034 70.0134 105.041 65.5601L105.06 53.9563C105.06 52.6921 105.06 51.4284 105.06 50.1651C105.06 49.7638 105.06 49.3626 105.06 48.9613C105.06 48.7976 105.121 48.4951 105.06 48.3363C105.056 48.3098 105.056 48.2828 105.06 48.2563C105.06 48.1188 104.456 48.2163 104.456 48.4176L104.449 53.0076C104.443 56.7042 104.437 60.4009 104.431 64.0976C104.424 68.5501 104.416 73.0034 104.41 77.4576L104.391 89.0613V92.8538V94.0575C104.391 94.225 104.332 94.5163 104.391 94.6825C104.395 94.709 104.395 94.736 104.391 94.7625L104.819 94.5375L97.4885 94.5263L79.9498 94.4963L58.6873 94.4625L40.3748 94.4338L34.3435 94.425H32.4685C32.1598 94.425 31.7935 94.37 31.4873 94.425C31.4457 94.4283 31.4039 94.4283 31.3623 94.425L31.5398 94.4875L31.5473 89.8625C31.5523 86.16 31.5581 82.458 31.5648 78.7563C31.5723 74.2988 31.5794 69.8405 31.586 65.3813L31.6048 53.7563C31.6048 52.4788 31.6069 51.2017 31.6111 49.9251V48.7388C31.6111 48.5713 31.6736 48.2613 31.6111 48.1038C31.6066 48.0769 31.6066 48.0495 31.6111 48.0226C31.6111 47.8851 31.0073 47.9826 31.0073 48.1851L31.0086 48.1888Z" fill="#6A79A6"/>
</svg>

<svg xmlns="http://www.w3.org/2000/svg" width="136" height="136" fill="none"><path fill="#F9F9F9" d="M37.739 121.31c-2.648-.572-34.458-5.729-32.114-43.76 2.344-38.031 5.281-49.469 17.649-53.654C35.64 19.711 65.7-.087 89.29 18.74c6.125 4.887 12.364 9.616 18.325 14.731 8.19 7.03 16.612 15.146 20.635 25.78A34.866 34.866 0 0 1 130.329 75c-.617 6.276-1.484 12.381-3.064 18.5l-1.614 6.25c-.322 1.25-.647 2.508-1.156 3.685-3.271 7.588-7.398 12.566-14.311 16.606-6 3.5-13.435 3.414-20.063 3.028-26.354-1.536-39.794.964-52.382-1.759"/><path fill="#F7E080" d="m31.306 48.1-.073 46.465 73.455.116.073-46.466z"/><path fill="#FFEEA7" d="M36.207 89.672c-1.741-1.625-1.388-4.64-1.29-6.777.125-2.8.164-5.603.192-8.405.049-4.583.038-9.167-.032-13.75-.03-2.038-.014-4.086-.174-6.119-.044-.559-1.172-6.277-1.177-6.275 1.392-.912 5.455-.229 7.288-.226l7.702.012 20.34.034 34.046.054h1.662l-.008 5.514-.034 20.39-.015 9.9c0 2.595-.43 5.375-.329 7.896-6.875 1.092-14.237.307-21.139-.068-7.338-.398-14.686-.676-22.036-.742-7.156-.065-14.68.892-21.774-.17-1.01-.15-2.028-.406-2.875-.981a2.825 2.825 0 0 1-.347-.287"/><path fill="#F7E080" d="m31.31 48.101 73.455.119L69.4 78.26a2.643 2.643 0 0 1-3.324.079l-31.73-24.472z"/><path fill="#FFF8C1" d="m31.31 48.101 73.455.119L68.23 76.927z"/><path fill="#6A79A6" d="m104.517 48.16-3.638 2.858-8.734 6.864-10.516 8.263-9.133 7.18-3.013 2.368c-.435.342-1.083.69-1.433 1.125a.434.434 0 0 1-.063.05l.525-.062-3.678-2.875-8.838-6.89-10.625-8.3-9.233-7.209-3.044-2.375-.947-.74c-.143-.111-.327-.321-.5-.387a.343.343 0 0 1-.063-.05l-.394.305 7.33.012 17.534.028 21.264.035 18.314.028c2.958 0 5.932.1 8.89.015h.125c.242 0 .636-.365.228-.366l-7.33-.011L80.01 48l-21.264-.038-18.315-.03c-2.957 0-5.93-.099-8.888-.014h-.125c-.083 0-.585.155-.394.304l3.678 2.875 8.832 6.89 10.625 8.299 9.238 7.214 3.043 2.375c.473.368.936.81 1.444 1.125a.773.773 0 0 1 .064.048c.156.125.382.05.524-.062l3.637-2.861 8.734-6.864L91.359 59l9.138-7.178 3.013-2.369c.438-.343 1.078-.69 1.433-1.125a.377.377 0 0 1 .062-.05c.275-.216-.323-.248-.488-.118"/><path fill="#6A79A6" d="M31.009 48.189 31 52.814l-.019 11.106-.021 13.375-.019 11.625c0 1.278-.002 2.555-.006 3.831v1.186c0 .168-.064.478 0 .636a.291.291 0 0 1 0 .08c0 .066.144.063.177.063l7.33.013 17.532.017 21.262.035 18.315.029c2.955 0 5.938.125 8.89.015h.125c.125 0 .427-.064.427-.225l.007-4.59.019-11.089c.006-4.454.014-8.908.021-13.36l.019-11.605v-4.995c0-.163.061-.466 0-.625a.268.268 0 0 1 0-.08c0-.137-.604-.04-.604.162l-.007 4.59-.018 11.09c-.007 4.452-.015 8.905-.021 13.36l-.019 11.603v4.997c0 .167-.059.458 0 .624a.268.268 0 0 1 0 .08l.428-.225-7.33-.01-17.54-.03-21.262-.034-18.312-.03-6.032-.008h-1.875c-.308 0-.675-.055-.98 0a.79.79 0 0 1-.126 0l.178.063.007-4.626.018-11.106.021-13.375.019-11.625c0-1.277.002-2.554.006-3.83v-1.187c0-.168.063-.478 0-.635a.246.246 0 0 1 0-.081c0-.138-.604-.04-.604.162z"/></svg>
